X:1
T:Title
%%score 1 2
L:1/8
Q:1/4=105
M:4/4
K:Bb
V:1 treble nm="Grand Piano, Soprano"
V:2 bass nm="Choir Pad, Bass"
V:1
 [DF][B,D][CE][DF]- [DF] [DF]2 [DG]- | [DG] [B,D]2 [DF]- [DF]2- [DF]/ z/ z | %2
w: By~Charles~Hutchinson~Gabriel * * * * * *||
 [DF][B,D][CE][DF]- [DF] [DF]2 [DG]- | [DG] [B,D]2 [EF]- [EF]2- [EF]/ z/ z | %4
w: ||
 [EF]E[EF][EA]- [EA] [Ec]2 [Ge]- | [Ge] [Ge]2 [Fd]- [Fd]3/2 z/ [Ec][DB]- | %6
w: ||
 [DB] [Fd]2 [=Ec]- [Ec] [EG]2 [EA]- | [EA] [=EB]2 [_Ec]- [Ec]2- [Ec]/ z/ z | %8
w: ||
 [DF][B,D][CE][DF]- [DF] [DF]2 [DG]- | [DG] [B,D]2 [DF]- [DF]2- [DF]/ z/ z | %10
w: ||
 [DF][B,D][CE][DF]- [DF] [DF]2 [DG]- | [DG] [B,D]2 [DF]- [DF]2- [DF]/ z/ z | %12
w: ||
 [D=E][DF][DG][CA]- [CA] [GB]2 [Ec]- | [Ec] [Bd]2 [Ac]- [Ac]3/2 z/ [GB][FA]- | %14
w: ||
 [FA] [FA]2 [=Ec]- [Ec] [DB]2 [CA]- | [CA] [B,G]2 [A,F]- [A,F]4- | %16
w: ||
 [A,F]A/B/- B/c/[Fd]- [Fd] [Fd]2 [Fd]- | [Fd] [Fd]2 [Fd]- [Fd]2 [Ec][DB]- | %18
w: ||
 [DB]3 [DF]- [DF] [DF]2 [DG]- | [DG] [B,D]2 [DF]- [DF]3 [CE]- | %20
w: ||
 [CE]F/A/- A/c/[Ae]- [Ae] [Ae]2 [Ge]- | [Ge] [Ge]2 [Ge]- [Ge]2 [Fd][Ec]- | %22
w: ||
 [Ec]3 [EA]- [EA] [EB]2 [EG]- | [EG] [EA]2 [_DG]- [DG]3 [=DF]- | %24
w: ||
 [DF]A/B/- B/c/[Fd]- [Fd] [Fd]2 [Fd]- | [Fd] [Fd]2 [Fd]- [Fd]2 [Ec][DB]- | %26
w: ||
 [DB]F/B/- B/c/[Fd]- [Fd] [Fd]2 [Fd]- | [Fd] [Fd]2 [Ge]- [Ge]2 [Gd][Gc]- | %28
w: ||
 [Gc]E/G/- G/c/[GB]- [GB] [GB]2 B | ABc[Fd]- [Fd] [Fd]2 d | FBd[Af]- [Af] [Ge]2 [Fd]- | %31
w: |||
 [Fd] [Ec]2 [DB]- [DB]4- | [DB]4 z4 |] %33
w: ||
V:2
 z2 z [B,,F,]- [B,,F,]/ z/ z z [F,,F,]- | [F,,F,]2 z [B,,F,]- [B,,F,]/ z/ z z [F,,F,]- | %2
 [F,,F,]2 z [B,,F,]- [B,,F,]/ z/ z z [F,,F,]- | [F,,F,]2 z [C,F,]- [C,F,]/ z/ z z [F,,F,]- | %4
 [F,,F,]2 z [C,F,]- [C,F,]/ z/ z z [F,,F,]- | [F,,F,]2 z [B,,F,]- [B,,F,]3/2 z/ z [D,F,]- | %6
 [D,F,]2 z E,- E, B,2 A,- | A, G,2 F,- F, E,2 D,- | D, C,2 [B,,F,]- [B,,F,]/ z/ z z [F,,F,]- | %9
 [F,,F,]2 z [B,,F,]- [B,,F,]/ z/ z z [F,,F,]- | [F,,F,]2 z [B,,F,]- [B,,F,]/ z/ z z [F,,F,]- | %11
 [F,,F,]2 z [=B,,_A,]- [B,,A,]/ z/ z z [B,,A,]- | [B,,A,]2 z [C,=A,]- [C,A,]/ z/ z z [=E,G,B,C]- | %13
 [E,G,B,C]2 z [F,,F,]- [F,,F,]3/2 z/ z [C,F,A,]- | %14
 [C,F,A,]2 z [C,,C,]- [C,,C,]/ z/ z z [=E,G,B,C]- | [E,G,B,C]2 z [F,A,]- [F,A,] _E,2 D,- | %16
 D, C,2 [B,,B,]- [B,,B,] [B,,B,]2 [B,,B,]- | [B,,B,] [B,,B,]2 [B,,B,]- [B,,B,]2 [B,,B,][B,,B,]- | %18
 [B,,B,]2 z [B,,B,]- [B,,B,] [B,,B,]2 [B,,B,]- | [B,,B,] [B,,B,]2 [C,F,A,]- [C,F,A,]3 [F,A,]- | %20
 [F,A,]2 z [F,C]- [F,C] [F,C]2 [F,C]- | [F,C] [F,C]2 [F,A,]- [F,A,]2 [F,B,][F,A,]- | %22
 [F,A,]2 z [F,C]- [F,C] [F,C]2 [F,C]- | [F,C] [F,A,]2 [B,,B,]- [B,,B,]3 [B,,F,B,]- | %24
 [B,,F,B,] D,2 [B,,B,]- [B,,B,] [B,,B,]2 [B,,B,]- | %25
 [B,,B,] [B,,B,]2 [B,,B,]- [B,,B,]2 [B,,B,][B,,B,]- | [B,,B,]2 z [G,=B,]- [G,B,] [G,B,]2 [G,B,]- | %27
 [G,B,] [G,=B,]2 [C,C]- [C,C]2 [D,B,][E,C]- | [E,C]2 z [=E,_D]- [E,D] .[E,D]3 | %29
 z2 z [F,B,]- [F,B,] .[F,B,]3 | z2 z [F,C]- [F,C] [F,C]2 [F,A,]- | %31
 [F,A,] [F,A,]2 [B,,B,]- [B,,B,]4- | [B,,B,]4 z4 |] %33

